icons/stackbit.svg

<?xml version="1.0" encoding="UTF-8"?>
<svg width="512px" height="79px" viewBox="0 0 512 79" version="1.1" xmlns="http://www.w3.org/2000/svg" xmlns:xlink="http://www.w3.org/1999/xlink">
    <!-- Generator: Sketch 59.1 (86144) - https://sketch.com -->
    <title>Group</title>
    <desc>Created with Sketch.</desc>
    <g stroke="none" stroke-width="1" fill="none" fill-rule="evenodd">
        <g>
            <path d="M138.763838,5.57703277 C147.790428,5.57703277 152.821642,9.05448942 157.334936,12.0880154 L159.332624,13.4937958 L152.89563,24.5920617 L150.675977,23.1122929 L149.877995,22.5669921 C146.32415,20.1505769 143.796734,18.6729865 138.763838,18.6729865 C137.949965,18.6729865 134.842451,19.3388825 133.288694,21.114605 L133.175797,21.2474013 C132.679799,21.8499595 132.115448,22.821624 132.252855,24.814027 C132.326844,28.1435068 134.546497,30.0672062 140.243607,31.546975 L140.917724,31.7497581 C141.328771,31.8758125 141.67405,31.9909056 142.019329,32.1388825 C147.938405,34.2845472 152.525688,37.1700964 155.707191,40.7955299 C158.888694,44.4949518 160.590428,48.9342582 160.590428,53.5955299 C160.590428,58.1828131 158.740717,62.9180732 155.633202,66.5435068 C152.007769,70.8348362 146.976555,73.2764547 141.427422,73.2764547 L140.867149,73.2732321 C138.193305,73.2419268 134.694474,72.9657033 130.551121,71.7226975 C125.001988,69.8729865 120.044763,66.6174952 115.753434,61.8082466 L124.780023,52.8556455 C131.291006,60.2544894 138.68985,60.2544894 141.427422,60.2544894 C146.532624,60.2544894 148.234358,55.297264 148.234358,53.6695183 C148.234358,50.1180732 144.460948,46.8625819 137.949965,44.5689403 L137.654012,44.4949518 L137.210081,44.1250096 L135.627804,43.6626073 C133.517053,43.0288846 130.575784,42.0122287 127.813549,40.0556455 C122.856324,36.5781888 120.118751,31.546975 119.822798,25.3319461 C119.526844,20.0787669 121.15459,15.5654721 124.336092,12.014027 C128.923376,6.98281311 135.582335,5.57703277 138.763838,5.57703277 Z M309.973087,5.50304433 C317.371931,5.50304433 324.326844,8.24061658 329.801988,12.6799229 L321.737249,22.2984201 C309.751121,14.0857033 291.623954,21.7065125 291.623954,39.2417727 C291.623954,57.5909056 310.78696,64.9897495 322.477133,55.6672062 L330.467884,65.2857033 C324.918751,70.1689403 317.741873,73.1284779 309.973087,73.1284779 C292.28985,73.1284779 277.862104,57.9608478 277.862104,39.3157611 C277.862104,20.6706744 292.28985,5.50304433 309.973087,5.50304433 Z M213.936092,6.3909056 L213.936092,19.4128709 L196.770775,19.4128709 L196.770775,71.7966859 L184.414705,71.7966859 L184.414705,19.4868594 L167.175399,19.4868594 L167.175399,6.3909056 L213.936092,6.3909056 Z M246.491006,6.46489404 L275.790428,71.7966859 L262.102566,71.7966859 L256.627422,59.6625819 L230.953434,59.6625819 L225.182335,71.7966859 L211.272509,71.7966859 L242.865572,6.46489404 L246.491006,6.46489404 Z M511.887538,6.3909056 L511.887538,19.4128709 L494.72222,19.4128709 L494.72222,71.7966859 L482.36615,71.7966859 L482.36615,19.4868594 L465.126844,19.4868594 L465.126844,6.3909056 L511.887538,6.3909056 Z M351.702566,6.3909056 L351.702566,27.4776108 L369.829734,6.3909056 L386.551121,6.3909056 L364.872509,31.9169172 L387.06904,71.6487091 L372.271353,71.6487091 L356.511815,41.831368 L351.702566,46.9365703 L351.702566,71.6487091 L339.346497,71.6487091 L339.346497,6.3909056 L351.702566,6.3909056 Z M411.707191,6.3909056 C421.69563,6.3909056 429.834358,14.9735646 429.834358,25.4799229 C429.834358,29.4752987 428.650543,33.1007322 426.652855,36.2082466 C431.16615,39.8336802 433.977711,45.53079 433.977711,51.8937958 C433.977711,62.9180732 425.543029,71.6487091 415.258636,71.6487091 L410.819329,71.6487091 L410.819329,60.5504432 L415.110659,60.5504432 L415.110659,60.6244316 C419.254012,60.6244316 422.731468,57.146975 422.731468,52.781657 C422.731468,48.4163391 419.254012,44.864894 415.110659,44.864894 L394.837827,44.864894 L394.837827,6.3909056 L411.707191,6.3909056 Z M457.136092,6.3909056 L457.136092,71.6487091 L444.780023,71.6487091 L444.780023,6.3909056 L457.136092,6.3909056 Z M244.345341,32.064894 L237.390428,46.6406166 L250.782335,46.6406166 L244.345341,32.064894 Z M411.189272,17.2672062 L405.788116,17.2672062 L405.788116,32.2128709 L411.189272,32.2128709 C414.666728,32.2128709 418.36615,29.2533333 418.36615,24.6660501 C418.36615,20.0787669 414.666728,17.2672062 411.189272,17.2672062 Z" fill="#FFFFFF" fill-rule="nonzero"></path>
            <polygon fill="#3EB2FD" fill-rule="nonzero" points="406.306035 71.7226975 394.837827 71.7226975 394.837827 60.6244316 406.306035 60.6244316"></polygon>
            <path d="M85.5661503,45.1608478 L48.4979422,65.8036224 L10.6898497,45.1608478 C9.28406936,44.346975 7.43435838,44.9388825 6.69447399,46.3446628 C5.88060116,47.7504432 6.47250867,49.6001542 7.87828902,50.3400385 L47.0921618,71.7966859 C47.9800231,72.314605 49.0898497,72.314605 49.977711,71.7966859 L88.4516994,50.3400385 C89.8574798,49.5261657 90.3753988,47.7504432 89.561526,46.3446628 C88.7476532,44.864894 86.9719306,44.346975 85.5661503,45.1608478 L85.5661503,45.1608478 Z M15.2771329,31.4729865 L48.4979422,12.6799229 L85.4921618,34.0625819 C86.8979422,34.8764547 88.7476532,34.3585357 89.561526,32.9527553 C90.3753988,31.546975 89.8574798,29.697264 88.4516994,28.8833911 L49.977711,6.68685936 C49.0898497,6.16894028 47.9800231,6.16894028 47.0181734,6.68685936 L7.80430058,28.8833911 C5.80661272,29.9932177 5.80661272,32.8787669 7.80430058,34.0625819 L47.0181734,56.2591137 C48.4239538,57.0729865 50.2736647,56.5550675 51.0875376,55.1492871 C51.9014104,53.7435068 51.3834913,51.8937958 49.977711,51.0799229 L15.2771329,31.4729865 Z M0.0355144509,47.0105588 L0.0355144509,32.2128709 C-0.260439306,28.8094027 1.29331792,25.3319461 4.69678613,23.4082466 L43.910659,1.21171485 C46.7962081,-0.416030816 50.2736647,-0.416030816 53.0852254,1.28570329 L91.5592139,23.4822351 C94.7407168,25.3319461 96.4424509,28.8094027 96.1464971,32.2128709 L96.1464971,47.0105588 C96.4424509,50.4880154 94.6667283,54.0394605 91.411237,55.8151831 L52.9372486,77.2718305 C50.1256879,78.8255877 46.7962081,78.8255877 43.9846474,77.2718305 L4.77077457,55.8151831 C1.51528324,54.0394605 -0.186450867,50.5620039 0.0355144509,47.0105588 Z" fill="#3EB0FD"></path>
        </g>
    </g>
</svg>

<svg xmlns="http://www.w3.org/2000/svg" viewBox="0 0 511.888 78.437">
  <g fill="none" fill-rule="evenodd">
    <path fill="#fff" fill-rule="nonzero" d="M138.764 5.577c9.026 0 14.058 3.477 18.57 6.511l1.999 1.406-6.437 11.098-2.22-1.48-.798-.545c-3.554-2.416-6.081-3.894-11.114-3.894-.814 0-3.922.666-5.475 2.442l-.113.132c-.496.603-1.06 1.575-.923 3.567.074 3.33 2.294 5.253 7.99 6.733l.675.203c.41.126.756.24 1.101.389 5.92 2.146 10.507 5.031 13.688 8.657 3.182 3.699 4.883 8.138 4.883 12.8 0 4.587-1.85 9.322-4.957 12.948-3.625 4.29-8.656 6.732-14.206 6.732l-.56-.003c-2.674-.031-6.173-.307-10.316-1.55-5.549-1.85-10.506-5.105-14.798-9.915l9.027-8.952c6.511 7.399 13.91 7.399 16.647 7.399 5.106 0 6.807-4.958 6.807-6.585 0-3.552-3.773-6.807-10.284-9.101l-.296-.074-.444-.37-1.582-.462c-2.111-.634-5.052-1.65-7.814-3.607-4.958-3.478-7.695-8.509-7.991-14.724-.296-5.253 1.332-9.767 4.513-13.318 4.587-5.031 11.246-6.437 14.428-6.437zm171.21-.074c7.398 0 14.353 2.738 19.828 7.177l-8.065 9.618c-11.986-8.212-30.113-.591-30.113 16.944 0 18.349 19.163 25.748 30.853 16.425l7.99 9.619c-5.548 4.883-12.725 7.842-20.494 7.842-17.683 0-32.11-15.167-32.11-33.812 0-18.645 14.427-33.813 32.11-33.813zm-96.038.888v13.022h-17.165v52.384h-12.356v-52.31h-17.24V6.39zm32.555.074 29.3 65.332h-13.688l-5.476-12.134h-25.674l-5.77 12.134h-13.91l31.593-65.332zm265.397-.074v13.022h-17.166v52.384h-12.356v-52.31h-17.24V6.39zm-160.185 0v21.087L369.83 6.39h16.721l-21.678 25.526 22.196 39.732h-14.798l-15.76-29.818-4.808 5.106v24.712h-12.356V6.39zm60.004 0c9.989 0 18.127 8.583 18.127 19.089 0 3.995-1.183 7.62-3.181 10.728 4.513 3.626 7.325 9.323 7.325 15.686 0 11.024-8.435 19.755-18.72 19.755h-4.439V60.55h4.292v.074c4.143 0 7.62-3.477 7.62-7.842 0-4.366-3.477-7.917-7.62-7.917h-20.273V6.39zm45.43 0v65.258H444.78V6.39zM244.344 32.065 237.39 46.64h13.392zM411.19 17.267h-5.4v14.946h5.4c3.478 0 7.177-2.96 7.177-7.547s-3.7-7.399-7.177-7.399z"/>
    <path fill="#3eb2fd" fill-rule="nonzero" d="M394.838 60.624h11.468v11.099h-11.468z"/>
    <path fill="#3eb0fd" d="M85.566 45.16 48.498 65.805 10.69 45.16c-1.406-.814-3.256-.222-3.996 1.184-.813 1.405-.221 3.255 1.184 3.995l39.214 21.457a2.874 2.874 0 0 0 2.886 0L88.452 50.34c1.405-.814 1.923-2.59 1.11-3.995-.814-1.48-2.59-1.998-3.996-1.184zM15.277 31.474l33.22-18.793 36.995 21.383c1.406.813 3.256.296 4.07-1.11.813-1.406.295-3.256-1.11-4.07L49.978 6.687c-.888-.518-1.998-.518-2.96 0L7.804 28.883c-1.997 1.11-1.997 3.996 0 5.18l39.214 22.196c1.406.814 3.256.296 4.07-1.11.813-1.405.295-3.255-1.11-4.07zM.036 47.011V32.213c-.296-3.404 1.257-6.881 4.66-8.805L43.912 1.212c2.885-1.628 6.363-1.628 9.174.074L91.56 23.482c3.182 1.85 4.883 5.327 4.587 8.73v14.799c.296 3.477-1.48 7.028-4.735 8.804L52.937 77.272a9.18 9.18 0 0 1-8.952 0L4.77 55.815C1.515 54.04-.186 50.562.036 47.011z"/>
  </g>
</svg>
